!!!COM:	Du Fay, Guillaume
!!!CDT:	~1397/08/05/-1474/11/27
!!!OTL:	Adieu m'amour adieu ma joye
!!!AGN:	Song; Chanson
!!!SCT:	Duf3017
!!!SCA:	Duf3017
!!!voices:	3
**kern	**text	**text	**text	**kern	**kern	**text	**text	**text
*staff3	*staff3	*staff3	*staff3	*staff2	*staff1	*staff1	*staff1	*staff1
*Ivox	*	*	*	*Ivox	*Ivox	*	*	*
*I"Tenor	*	*	*	*I"Contratenor	*I"Cantus	*	*	*
*I'T	*	*	*	*I'Ct	*I'Cn	*	*	*
*clefGv2	*	*	*	*clefGv2	*clefG2	*	*	*
*k[b-]	*	*	*	*k[]	*k[]	*	*	*
*M2/1	*	*	*	*M2/1	*M2/1	*	*	*
*met(C)	*	*	*	*met(C)	*met(C)	*	*	*
=1-	=1-	=1-	=1-	=1-	=1-	=1-	=1-	=1-
!	!	!	!	!LO:TX:Y=40:t=Adieu m'amour	!	!	!	!
!!LO:TX:Z=12:t=Rondeau
0c	1.4.7. A-	3. De	5. Je	0C	[0c	1.4.7. A-	3. De	5. Je
=2	=2	=2	=2	=2	=2	=2	=2	=2
[0A	-dieu	des-	prie	0F	1c]	.	.	.
.	.	.	.	.	2d/	.	.	.
.	.	.	.	.	2e/	.	.	.
=3	=3	=3	=3	=3	=3	=3	=3	=3
0A]	.	.	.	1.c	1f	-dieu	des-	prie
.	.	.	.	.	1e	.	.	.
.	.	.	.	2B\	.	.	.	.
=4	=4	=4	=4	=4	=4	=4	=4	=4
1.F	m'a-	-plai-	a	1.A	1.d	m'a-	-plai-	a
2E/	.	.	.	2G/	2c/	.	.	.
=5	=5	=5	=5	=5	=5	=5	=5	=5
0C	-mour,	-sir	Dieu	0G	0e	-mour,	-sir	Dieu
=6	=6	=6	=6	=6	=6	=6	=6	=6
0F	a-	for-	qu'il	0A	2d/	.	.	.
.	.	.	.	.	2c/	.	.	.
.	.	.	.	.	[1c	a-	for-	qu'il
=7	=7	=7	=7	=7	=7	=7	=7	=7
2A/	-dieu	-ment	me	1F	1c]	.	.	.
2B-\	.	.	.	.	.	.	.	.
[1c	.	.	.	[1C	2e/	-dieu	-ment	me
.	.	.	.	.	2f/	.	.	.
=8	=8	=8	=8	=8	=8	=8	=8	=8
1c]	.	.	.	1C]	1g	ma	ler-	con-
1F	ma	ler-	con-	[1c	[1a	.	.	.
=9	=9	=9	=9	=9	=9	=9	=9	=9
1A	joy-	-moy-	-voy-	1c]	2a/]	.	.	.
.	.	.	.	.	2f/	.	.	.
1B-	.	.	.	1G	[1g	joy-	-moy-	-voy-
=10	=10	=10	=10	=10	=10	=10	=10	=10
0G	.	.	.	1.B	2g/]	.	.	.
.	.	.	.	.	2d/	.	.	.
.	.	.	.	.	2e/	.	.	.
.	.	.	.	2A/	4d/	.	.	.
.	.	.	.	.	4e/	.	.	.
=11	=11	=11	=11	=11	=11	=11	=11	=11
[0F	-e,	-e.	-e,	[0c	0f	-e,	-e.	-e,
=12	=12	=12	=12	=12	=12	=12	=12	=12
0F]	.	.	.	0c]	1r	.	.	.
.	.	.	.	.	1a	A-	Il	Et
=13	=13	=13	=13	=13	=13	=13	=13	=13
1r	.	.	.	0d	1a	-dieu	n'es	doint
1F	A	Il	Et	.	1a	le	re-	que
=14	=14	=14	=14	=14	=14	=14	=14	=14
1E	dieu	n'es	doint	1.e	1g	so-	-con	brief
1E	le	re-	que	.	1g	-las	fort-	ment
.	.	.	.	[2c\	.	.	.	.
=15	=15	=15	=15	=15	=15	=15	=15	=15
1F	so-	-con	brief	2c\]	0a	que	-que	vous-
.	.	.	.	1f	.	.	.	.
1F	-las	fort-	ment	.	.	.	.	.
.	.	.	.	2e\	.	.	.	.
=16	=16	=16	=16	=16	=16	=16	=16	=16
1G	que	-que	vous-	0d	1.b-	j'a-	je	-re-
1G	j'a-	je	-re-	.	.	.	.	.
.	.	.	.	.	2a/	.	.	.
=17	=17	=17	=17	=17	=17	=17	=17	=17
0A	-voy-	vo-	-voy-	0D	1.f	-voy-	vo-	-voy-
.	.	.	.	.	2g/	.	.	.
=18	=18	=18	=18	=18	=18	=18	=18	=18
1F	.	.	.	1r	1a	.	.	.
[1G	.	.	.	[1d	1b-i	.	.	.
=19	=19	=19	=19	=19	=19	=19	=19	=19
2G/]	.	.	.	1d]	2g/	.	.	.
2F/	.	.	.	.	1a	.	.	.
1D	.	.	.	1B	.	.	.	.
.	.	.	.	.	2g/	.	.	.
=20	=20	=20	=20	=20	=20	=20	=20	=20
1C	.	.	.	1c	2e/	.	.	.
.	.	.	.	.	2d/	.	.	.
1F	.	.	.	1A	[1d	.	.	.
=21	=21	=21	=21	=21	=21	=21	=21	=21
0E	.	.	.	1.G	1d]	.	.	.
.	.	.	.	.	1c#i	.	.	.
.	.	.	.	2F/	.	.	.	.
=22	=22	=22	=22	=22	=22	=22	=22	=22
[0D	-e,	-ye,	-e,	0A	0d	-e,	-ye,	-e,
=23	=23	=23	=23	=23	=23	=23	=23	=23
0D]	.	.	.	1B-i	0r	.	.	.
.	.	.	.	1A	.	.	.	.
=24	=24	=24	=24	=24	=24	=24	=24	=24
0r	.	.	.	0d	1f	A-	Quant	Mon
.	.	.	.	.	1f	-dieu	vous	bien,
=25	=25	=25	=25	=25	=25	=25	=25	=25
1F	A-	Quant	Mon	0c	1.a	ma	es-	m'a-
1F	-dieu	vous	bien,	.	.	.	.	.
.	.	.	.	.	2b-i\	.	.	.
=26	=26	=26	=26	=26	=26	=26	=26	=26
1.A	ma	es-	m'a-	0F	1.cc	le-	-loig-	-mour
2B-\	.	.	.	.	2b-i\	.	.	.
=27	=27	=27	=27	=27	=27	=27	=27	=27
1c	le-	-loig-	-mour	1r	2.a/	-a-	-ne,	et
.	.	.	.	.	4g/	.	.	.
2c\	-a-	.	.	1C	2.g/	-le	ma	ma
2B-\	.	-ne,	et	.	.	.	.	.
.	.	.	.	.	4f/	.	.	.
=28	=28	=28	=28	=28	=28	=28	=28	=28
1A	-le	ma	ma	1c	2.f/	ma-	prin-	de-
.	.	.	.	.	4e/	.	.	.
1G	ma-	prin-	de-	1B	2e/	.	.	.
.	.	.	.	.	[2d/	.	.	.
=29	=29	=29	=29	=29	=29	=29	=29	=29
1F	-tres-	-ces-	-e-	1A	2d/]	.	.	.
.	.	.	.	.	2c/	.	.	.
1E	.	.	.	1G	[1c	-tres-	-ces-	-e-
=30	=30	=30	=30	=30	=30	=30	=30	=30
0D	.	.	.	2F/	1c]	.	.	.
.	.	.	.	1F	.	.	.	.
.	.	.	.	.	2B/	.	.	.
.	.	.	.	2E/	2A/	.	.	.
=31	=31	=31	=31	=31	=31	=31	=31	=31
[0CN	-se	-se	-se&	[0GN	[0cN	-se	-se	-se&
=32	=32	=32	=32	=32	=32	=32	=32	=32
0C]	.	.	.	0G]	0c]	.	.	.
=33	=33	=33	=33	=33	=33	=33	=33	=33
0r	.	.	.	1c	0r	.	.	.
.	.	.	.	1c	.	.	.	.
=34	=34	=34	=34	=34	=34	=34	=34	=34
1c	.	.	.	1A	0r	.	.	.
1c	di-	ad-	.	1F	.	.	.	.
=35	=35	=35	=35	=35	=35	=35	=35	=35
1A	-re a-	-vis	.	1r	1cc	.	.	.
[1F	-dieu	m'est,	.	[1f	1cc	di-	ad-	.
=36	=36	=36	=36	=36	=36	=36	=36	=36
1F]	.	.	.	2f\]	1a	-re a-	-vis	.
.	.	.	.	2e\	.	.	.	.
1A	tant	de	.	1c	[1f	-dieu	m'est,	.
=37	=37	=37	=37	=37	=37	=37	=37	=37
1B-	.	.	.	2d\	1f]	.	.	.
.	.	.	.	2c\	.	.	.	.
1c	fort	ce	.	1A	1a	tant	de	.
=38	=38	=38	=38	=38	=38	=38	=38	=38
1d	me	que	.	1G	1b	.	.	.
1c	bles-	lais-	.	1A	[1cc	fort	ce	.
=39	=39	=39	=39	=39	=39	=39	=39	=39
1f	.	.	.	1F	1cc]	.	.	.
1e	.	.	.	1c	1cc	me	que	.
=40	=40	=40	=40	=40	=40	=40	=40	=40
1.d	.	.	.	0G	2b\	.	.	.
.	.	.	.	.	1b	bles-	lais-	.
2c\	.	.	.	.	2a/	.	.	.
=41	=41	=41	=41	=41	=41	=41	=41	=41
[0c	-se,	-se,	.	1A	1.a	-se,	-se,	.
.	.	.	.	1F	.	.	.	.
.	.	.	.	.	4g/	.	.	.
.	.	.	.	.	4f/	.	.	.
=42	=42	=42	=42	=42	=42	=42	=42	=42
0c]	.	.	.	0C	0e	.	.	.
=43	=43	=43	=43	=43	=43	=43	=43	=43
0c	.	.	.	0A	1r	.	.	.
.	.	.	.	.	1e	Qu'il	Qu'a	.
=44	=44	=44	=44	=44	=44	=44	=44	=44
1r	.	.	.	0F	1f	me	pres	.
1A	Qu'il	Qu'a	.	.	1f	sem-	ma-	.
=45	=45	=45	=45	=45	=45	=45	=45	=45
1B-	me	pres	.	1r	1g	-ble	-pai	.
1B-	sem-	ma-	.	1d	1g	que	ne-	.
=46	=46	=46	=46	=46	=46	=46	=46	=46
1A	-ble	-pai	.	1c	0a	mo-	-joy-	.
1F	que	ne-	.	1f	.	.	.	.
=47	=47	=47	=47	=47	=47	=47	=47	=47
1G	mo-	-joy-	.	2d\	0b-	-rir	-e a	.
.	.	.	.	1e	.	.	.	.
1G	-rir	-e a	.	.	.	.	.	.
.	.	.	.	2d\	.	.	.	.
=48	=48	=48	=48	=48	=48	=48	=48	=48
1F	doy-	roy-	.	1f	0a	doy-	roy-	.
2E/	.	.	.	1r	.	.	.	.
[2D/	.	.	.	.	.	.	.	.
=49	=49	=49	=49	=49	=49	=49	=49	=49
2D/]	.	.	.	2d\	1r	.	.	.
2C/	.	.	.	2e\	.	.	.	.
1F	.	.	.	1c	1f	.	.	.
=50	=50	=50	=50	=50	=50	=50	=50	=50
1G	.	.	.	1B	2e/	.	.	.
.	.	.	.	.	1d	.	.	.
[1A	.	.	.	2A/	.	.	.	.
.	.	.	.	[2c\	2c/	.	.	.
=51	=51	=51	=51	=51	=51	=51	=51	=51
1A]	.	.	.	2c\]	1f	.	.	.
.	.	.	.	2B-i\	.	.	.	.
1B-	.	.	.	1G	1g	.	.	.
=52	=52	=52	=52	=52	=52	=52	=52	=52
1.c	.	.	.	1F	0a	.	.	.
.	.	.	.	1r	.	.	.	.
2B-\	.	.	.	.	.	.	.	.
=53	=53	=53	=53	=53	=53	=53	=53	=53
2G/	.	.	.	1d	1b-i	.	.	.
2F/	.	.	.	.	.	.	.	.
1A	.	.	.	2c\	[1cc	.	.	.
.	.	.	.	2e\	.	.	.	.
=54	=54	=54	=54	=54	=54	=54	=54	=54
2F/	.	.	.	2f\	2cc\]	.	.	.
2G/	.	.	.	1d	2b-i\	.	.	.
1E	.	.	.	.	2.g/	.	.	.
.	.	.	.	2c\	.	.	.	.
.	.	.	.	.	4f/	.	.	.
=55	=55	=55	=55	=55	=55	=55	=55	=55
2D/	.	.	.	1.d	1.a	.	.	.
1F	.	.	.	.	.	.	.	.
2G/	.	.	.	2B-i\	2b-i\	.	.	.
=56	=56	=56	=56	=56	=56	=56	=56	=56
2A/	.	.	.	2c\	2a/	.	.	.
2B-\	.	.	.	2d\	4g/	.	.	.
.	.	.	.	.	4f/	.	.	.
1G	.	.	.	1B-i	2.e/	.	.	.
.	.	.	.	.	4d/	.	.	.
=57	=57	=57	=57	=57	=57	=57	=57	=57
0Fl	-e.	-e.	.	0cl	0fl	-e.	-e.	.
==	==	==	==	==	==	==	==	==
*-	*-	*-	*-	*-	*-	*-	*-	*-
!!!RDF**kern: l=long note in original notation
!!!RDF**kern: i=editorial accidental
!!!RDF**kern: N=signum congruentiae
!!!ENC:	Alejandro Planchart
!!!END:	2016/04/01/
!!!EED:	Jesse Rodin
!!!EEV:	2016/04/15/
!!!ONB:	Translated from MusicXML and edited on 2016/04/15/ by Craig Sapp
!!muse2ps: C^@{COM}^i2I150v95,95,150Q16c80
